css/img/coffee.svg

<svg xmlns="http://www.w3.org/2000/svg" viewBox="0 0 649 488.4">
    <linearGradient id="a" gradientUnits="userSpaceOnUse" x1="324.494" x2="324.494" y2="697.037">
        <stop offset="0" stop-color="#fdf4be"/>
        <stop offset=".144" stop-color="#fcf1ba"/>
        <stop offset=".297" stop-color="#f7e7ad"/>
        <stop offset=".455" stop-color="#f1d898"/>
        <stop offset=".539" stop-color="#eccd89"/>
        <stop offset="1" stop-color="#a26f40"/>
    </linearGradient>
    <path fill="url(#a)" d="M0 0h649v488.4H0z"/>
    <g>
        <path d="M445.2 362.1c-29.7 31.3-71.7 49.1-120 47.8-47.8-1.3-89.3-23-116.9-52.7-46.8 8.4-78.9 22.5-79.4 39.3-.7 29 87.7 54.8 197.5 57.6 109.8 2.8 199.4-18.4 200.2-47.4.4-17.5-31.7-33.8-81.4-44.6m-125.1 77.3c-97.2-1.3-172.4-21.2-171.9-42.4.3-12.2 24.2-20.1 65.5-26.6-32.1 6.5-51.8 15.7-52 26.3-.5 21.1 77.9 39.3 175.2 40.7 26.3.4 51.4-.5 73.9-2.5-25.9 2.9-58.9 5-90.7 4.5M172.9 272.9c-22.7-.6-36.5-15.5-44.5-7.5-11 10.9-8.1 49.2 22.3 62.6 20.5 9 44.7 32.1 57.6 26.2-21.4-22.8-32.4-49-35.4-81.3m-17.6 41.6c-8.7 0-15.7-7.3-15.7-16.3s7-16.3 15.7-16.3 15.7 7.3 15.7 16.3c0 9.1-7.1 16.3-15.7 16.3M291.7 34c-75.4 106.9 185.7 103.4 63 197.5 57.7-75.3-157.6-96-63-197.5m-19.2 20.7c-69.9 81.3 162.7 127.6 65 176.8 83.8-41.3-149.2-103.9-65-176.8m56.6 190.9c-83.8-2.2-151.8 2.4-152 10.1-2.2 81 63.9 148 147.7 150.2 83.8 2.3 153.5-61.5 155.7-142.6.2-7.6-67.6-15.5-151.4-17.7m-12.9 110.6c-14.3-12.1-19.6-29.7-12.6-40.5l54.7 45.9c-9.4 9-27.7 6.8-42.1-5.4m45 1.9L306 312.8c9.3-9.2 27.9-7.1 42.4 5.2 14.2 11.9 19.5 29.3 12.8 40.1m-32.7-78.9c-71.4-1.8-129.2-8.6-129-15.1.2-6.5 58.2-10.3 129.6-8.5 71.4 1.8 129.2 8.6 129 15.2-.2 6.4-58.2 10.2-129.6 8.4" fill="#42210b"/>
    </g>
</svg>

<?xml version="1.0" encoding="utf-8"?>
<!-- Generator: Adobe Illustrator 19.0.0, SVG Export Plug-In . SVG Version: 6.00 Build 0)  -->
<svg version="1.1" xmlns="http://www.w3.org/2000/svg" xmlns:xlink="http://www.w3.org/1999/xlink" x="0px" y="0px"
	 viewBox="0 0 649 488.4" style="enable-background:new 0 0 649 488.4;" xml:space="preserve">
<style type="text/css">
	.st0{fill:url(#SVGID_1_);}
	.st1{fill:#42210B;}
</style>
<g id="FreeVector.com_BG">
	<linearGradient id="SVGID_1_" gradientUnits="userSpaceOnUse" x1="324.4938" y1="4.999854e-04" x2="324.4938" y2="697.0366">
		<stop  offset="0" style="stop-color:#FDF4BE"/>
		<stop  offset="0.1437" style="stop-color:#FCF1BA"/>
		<stop  offset="0.2974" style="stop-color:#F7E7AD"/>
		<stop  offset="0.4552" style="stop-color:#F1D898"/>
		<stop  offset="0.5393" style="stop-color:#ECCD89"/>
		<stop  offset="1" style="stop-color:#A26F40"/>
	</linearGradient>
	<rect x="0" y="0" class="st0" width="649" height="488.4"/>
</g>
<g id="Vector_Graphics">
	<path class="st1" d="M445.2,362.1c-29.7,31.3-71.7,49.1-120,47.8c-47.8-1.3-89.3-23-116.9-52.7c-46.8,8.4-78.9,22.5-79.4,39.3
		c-0.7,29,87.7,54.8,197.5,57.6c109.8,2.8,199.4-18.4,200.2-47.4C527,389.2,494.9,372.9,445.2,362.1 M320.1,439.4
		c-97.2-1.3-172.4-21.2-171.9-42.4c0.3-12.2,24.2-20.1,65.5-26.6c-32.1,6.5-51.8,15.7-52,26.3c-0.5,21.1,77.9,39.3,175.2,40.7
		c26.3,0.4,51.4-0.5,73.9-2.5C384.9,437.8,351.9,439.9,320.1,439.4 M172.9,272.9c-22.7-0.6-36.5-15.5-44.5-7.5
		c-11,10.9-8.1,49.2,22.3,62.6c20.5,9,44.7,32.1,57.6,26.2C186.9,331.4,175.9,305.2,172.9,272.9 M155.3,314.5
		c-8.7,0-15.7-7.3-15.7-16.3c0-9,7-16.3,15.7-16.3c8.7,0,15.7,7.3,15.7,16.3C171,307.3,163.9,314.5,155.3,314.5 M291.7,34
		c-75.4,106.9,185.7,103.4,63,197.5C412.4,156.2,197.1,135.5,291.7,34 M272.5,54.7c-69.9,81.3,162.7,127.6,65,176.8
		C421.3,190.2,188.3,127.6,272.5,54.7 M329.1,245.6c-83.8-2.2-151.8,2.4-152,10.1c-2.2,81,63.9,148,147.7,150.2
		c83.8,2.3,153.5-61.5,155.7-142.6C480.7,255.7,412.9,247.8,329.1,245.6 M316.2,356.2c-14.3-12.1-19.6-29.7-12.6-40.5l54.7,45.9
		C348.9,370.6,330.6,368.4,316.2,356.2 M361.2,358.1L306,312.8c9.3-9.2,27.9-7.1,42.4,5.2C362.6,329.9,367.9,347.3,361.2,358.1
		 M328.5,279.2c-71.4-1.8-129.2-8.6-129-15.1c0.2-6.5,58.2-10.3,129.6-8.5c71.4,1.8,129.2,8.6,129,15.2
		C457.9,277.2,399.9,281,328.5,279.2"/>
</g>
</svg>
